app/img/event-icon.svg

<svg width="32" height="32" viewBox="0 0 32 32" fill="none" xmlns="http://www.w3.org/2000/svg">
<path d="M30.282 29.7914V20.8491C31.3179 19.9862 31.9786 18.6874 31.9786 17.2369V15.1192L16.9378 6.74837V5.54187H22.3521V0.333618H15.0628V6.74856L0 15.1188V17.2369C0 18.6978 0.67 20.005 1.71869 20.8678V29.7914H0.000625V31.6663H32V29.7914L30.282 29.7914ZM16.9378 2.20856H20.4771V3.66687H16.9378V2.20856ZM29.2571 15.7504H24.1628L19.5001 10.3201L29.2571 15.7504ZM16.9268 10.2014L21.6916 15.7504H16.9268V10.2014ZM22.5511 17.6253C22.3613 19.0002 21.1784 20.0624 19.7523 20.0624C18.3259 20.0624 17.1431 19.0002 16.9534 17.6253H22.5511ZM10.3048 15.7504L15.0518 10.2067V15.7504H10.3048ZM15.0251 17.6253C14.8354 19.0002 13.6525 20.0624 12.2263 20.0624C10.8 20.0624 9.61719 19.0002 9.42744 17.6253H15.0251ZM12.4776 10.3301L7.83625 15.7504H2.7235L12.4776 10.3301ZM1.90156 17.6253H7.49919C7.30944 19.0002 6.12656 20.0624 4.70038 20.0624C3.27419 20.0624 2.09131 19.0002 1.90156 17.6253ZM7.59869 29.7914H3.59369V21.8046C3.94887 21.8906 4.31919 21.9374 4.70044 21.9374C6.23787 21.9374 7.60525 21.1953 8.46338 20.0507C9.3215 21.1954 10.6888 21.9374 12.2264 21.9374C13.199 21.9374 14.1034 21.6404 14.854 21.1325C14.6313 22.2642 14.2332 23.3601 13.6708 24.3725C12.7602 26.0119 11.4373 27.4022 9.84513 28.3932L7.59869 29.7914ZM11.1362 29.7914C12.8642 28.648 14.3029 27.0961 15.31 25.283C15.5706 24.8137 15.8008 24.329 16.0004 23.8326C16.2 24.3289 16.4301 24.8137 16.6908 25.283C17.6979 27.096 19.1366 28.648 20.8646 29.7914H11.1362ZM28.407 29.7914H24.4019L22.1555 28.3932C20.5634 27.4022 19.2404 26.0119 18.3298 24.3725C17.7701 23.3649 17.3733 22.2749 17.1501 21.149C17.8957 21.6466 18.7905 21.9374 19.7522 21.9374C21.2896 21.9374 22.657 21.1953 23.5151 20.0507C24.3732 21.1954 25.7406 21.9374 27.2781 21.9374C27.6672 21.9374 28.0451 21.889 28.407 21.7994V29.7914ZM27.2781 20.0624C25.8518 20.0624 24.669 19.0002 24.4792 17.6254H30.0769C29.8872 19.0002 28.7044 20.0624 27.2781 20.0624Z" fill="#10375C"/>
</svg>

<svg width="32" height="32" fill="none" xmlns="http://www.w3.org/2000/svg"><path d="M30.282 29.791V20.85a4.692 4.692 0 001.697-3.612V15.12L16.938 6.75V5.541h5.414V.334h-7.29v6.415L0 15.119v2.118c0 1.46.67 2.768 1.719 3.63v8.924H0v1.875h32v-1.875h-1.718zM16.938 2.21h3.54v1.458h-3.54V2.209zm12.32 13.541h-5.095L19.5 10.32l9.757 5.43zm-12.331-5.549l4.765 5.55h-4.765V10.2zm5.624 7.424a2.83 2.83 0 01-2.799 2.437 2.83 2.83 0 01-2.799-2.437h5.598zM10.305 15.75l4.747-5.543v5.543h-4.747zm4.72 1.875a2.83 2.83 0 01-2.799 2.437 2.83 2.83 0 01-2.799-2.437h5.598zm-2.547-7.295l-4.642 5.42H2.723l9.755-5.42zM1.902 17.625h5.597A2.83 2.83 0 014.7 20.062a2.83 2.83 0 01-2.798-2.437zm5.697 12.166H3.594v-7.986a4.697 4.697 0 004.87-1.754 4.696 4.696 0 006.39 1.081 11.083 11.083 0 01-1.183 3.24 11.09 11.09 0 01-3.826 4.021L7.6 29.791zm3.537 0A12.903 12.903 0 0016 23.832a12.893 12.893 0 004.865 5.96h-9.729zm17.271 0h-4.005l-2.247-1.398a11.091 11.091 0 01-3.825-4.02 11.079 11.079 0 01-1.18-3.224 4.697 4.697 0 006.365-1.098 4.696 4.696 0 004.892 1.748v7.992zm-1.129-9.729a2.83 2.83 0 01-2.799-2.437h5.598a2.83 2.83 0 01-2.799 2.437z" fill="#10375C"/></svg>
